X:1
T:"The Yankee Doodle Boy"
T:"The Yankee Doodle Boy"
T:George M. Cohan
C:George M. Cohan
%%score ( 1 2 ) { ( 3 5 ) | ( 4 6 ) }
L:1/8
M:2/4
K:F
V:1 treble nm="Voice"
V:2 treble 
V:3 treble nm="Piano" snm="Pno."
V:5 treble 
V:4 bass 
V:6 bass 
V:1
 z4 | z4 | z4 | z4 ||S z4 | z4 | z4 | z4 | z4 | z4 | z4 | z4 || z4 | z4 || F F G A | F A G C | %16
w: ||||||||||||||I'm the kid that's|all the can- dy,|
w: ||||||||||||||Fa- ther's name was|Hez- i- ki- ah,|
 F F G A | F A G C | D G2 D | G4 | E c2 G | c4 | F F G A | F A G C | F F G A | F A G C | F F G A | %27
w: I'm a Yan- kee|Doo- dle Dan- dy,|I'm glad I|am,|(So's Un- cle|Sam.)|I'm a real live|Yan- kee Doo- dle,|Made my name and|fame and boo- dle,|Just like Mis- ter|
w: Moth- er's name was|Ann Ma- ri- a,|Yanks through and|through,|(Red, White and|Blue.)|Fa- ther was so|Yan- kee- heart- ed,|When the Span- ish|war was start- ed,|He slipped on his|
 B A G F | E G C G | F2 F C | F3/2 F/ F/ G/ A/ B/ | c c c3/2 d/ | c A B/ A/ G/ F/ | G F D F/ F/ | %34
w: Doo- dle did, by|rid- ing on a|po- ny. I|love to lis- ten to the|Dix- ey strain, "I|long to see the girl I|left be- hind me;" And|
w: un- i- form and|hopped up- on a|po- ny. My|moth- er's moth- er was a|Yan- kee true, My|fa- ther's fa- ther was a|Yan- kee too; And *|
 E c2 E | c2 B G | F c2 A | c2 (c A) | F4 | A2 c2 | f4- | f2 GF | E c =B c | d c E A | G4 | F2 z2 | %46
w: that ain't a|josh, She's a|Yan- kee, by|gosh. (Oh, *|say|can you|see|_ An- y-|thing a- bout a|Yan- kee that's a|phon-|ey?)|
w: that's go- ing|some, For the|Yan- kees, by|gum. (Oh, *|say|can you|see|_ An- y-|thing a- bout my|ped- i- gree that's|phon-|ey?)|
 z4 | z4 | z4 | z2 z z |:[K:Bb] d3 c | c B A B | c4 | G3 c | c3 d | c A G F | B4- | B3 d | d2 d2 | %59
w: ||||I'm a|Yan- kee Doo- dle|Dan-|dy, A|Yan- kee|Doo- dle, do or|die;|_ A|real live|
w: |||||||||||||
 =B c d f | e2 d2 | c2 z2 | d c2 B | G B2 d | c4- | c z z c | d3 c | c B A B | c4 | G3 z | c3 d | %71
w: nep- hew of my|Un- cle|Sam's,|Born on the|Fourth of Ju-|ly.|_ I've|got a|Yan- kee Doo- dle|sweet-|heart,|She's my|
w: ||||||||||||
 c A G F | B4- | B3 z | B B c d | B d c F | B B c d | B2 F2 | G c2 G | A3/2 B/ c A |1 B4- | %81
w: Yan- kee Doo- dle|joy.|_|Yan- kee Doo- dle|came to Lon- don,|Just to ride the|pon- nies;|I am the|Yan- kee Doo- dle|Boy.|
w: ||||||||||
 B2 z2 :|2 B4- | B3 z!D.S.! |] %84
w: _|Boy.|_|
w: |||
V:2
 x4 | x4 | x4 | x4 || x4 | x4 | x4 | x4 | x4 | x4 | x4 | x4 || x4 | x4 || x4 | x4 | x4 | x4 | x4 | %19
 x4 | x4 | x4 | x4 | x4 | x4 | x4 | x4 | x4 | x4 | x4 | x4 | x4 | x4 | x3 F | x4 | x4 | x4 | x4 | %38
 x4 | x4 | x4 | x4 | x4 | x4 | x4 | x4 | x4 | x4 | x4 | x4 |:[K:Bb] x4 | x4 | x4 | x4 | x4 | x4 | %56
 x4 | x4 | x4 | x4 | x4 | x4 | x4 | x4 | x4 | x4 | x4 | x4 | x4 | x4 | x4 | x4 | x4 | x4 | x4 | %75
 x4 | x4 | x4 | x4 | x4 |1 x4 | x4 :|2 x4 | x4 |] %84
V:3
"^Tempo di Marcia"!mf!{cde} [Af][Af] [Bg][ca] | [Af][ca] [Bg][Bc] | [Af]>d cA | G z !>![EBc] z || %4
!f! c/G/E/G/ cc/c/ | !>![F_A_d]!>![FAd] !>![EGc] z | e/c/G/c/ ee/e/ | %7
 !>![_A_df]!>![Adf] !>![Gce] z |!<(! [Beb] [Beb]2 [Bfb]!<)! | [Beb][Bfb] [Beb][Bfb] | %10
 [Beb] z [CBcec'] z | [CEc] z z2 ||!p!({CD)E} F[CFA] z [CFA] | z [CFA] z [CFA] ||!p!({CD)E} FFGA | %15
 FAGC | FFGA | FAGC | D G2 D | [=B,FG]4 | E [Ec]2 [EG] | [EBc]4 | FFGA | FAGC | FFGA | FAGC | %26
!<(! FF!<)!G[FA] |!>(! [FB][D^FA][DG][D=F]!>)! | EGCG | F2 !>![A,CF]C | F>F F/G/A/B/ | %31
 c[FAc] [FAc]>d | cA B/A/G/F/ | GF DF | E [Ec]2 E | [Ec]2 [EB][EG] | F [FAc]2 [FA] | %37
!<(! [FAc]2 z2!<)! | z [Acf]/[Acf]/ [Acf][Acf] | z [Acf] z [Acf] | z [cfa]/[cfa]/ [cfa][cfa] | %41
 [cfa]2!>(! [=B,G]F!>)! | [CE][Ec][E=B][Ec] | [Ed][Ec]E[EA] |!<(! z [B,E]!<)!!>(![B,D][B,C]!>)! | %45
 [A,CF]2!<(! c>A!<)! | FF F/G/A/B/ | cccA | [FAc]2 [F^Gd]2 | [FA_e][Ff]/[Ff]/ [Ff][Ff] |: %50
[K:Bb] [Fd]3 [Fc] | [Fc][FB][FA][FB] |!<(! z =EF^F!<)! |!>(! G3 [=Ec]!>)! | [Ec]3 [Ed] | %55
 [Ec][EA][EG][EF] |!<(! z [DF] z [DF]!<)! |!>(! z [DF] z [DF]!>)! | [Fd]2 [Fd]2 | %59
 [F=B][Fc][Fd][GBf] | [Ge]2 [Fd]2 |!<(! [Ec](G/^F/!<)!!>(! G/A/B/c/)!>)! | [=Ed] [Ec]2 [EB] | %63
 [=EG] [EB]2 [EBd] |!<(! _E[EA][EG][E_G]!<)! | [EF] z!>(! !>![FAef][Fc]!>)! | [Fd]3 [Fc] | %67
 [Fc][FB][FA][FB] |!<(! z =E!<)!!>(!F^F!>)! | G=E/F/ G/A/B/c/ | [_Ec]3 [Ed] | %71
!<(! [Ec][EA][EG][EF]!<)! | z [DF] z [DF] |!>(! z [DF] z [DF]!>)! | [DB][DB][Ec][Fd] | %75
 [DB][Fd][Ec][EF] | [DB][DB][Ec][Fd] | [DB]2 F2 | [=EG] [Ec]2 [EG] | [_EA]>[EB][Ec][EA] |1 %80
!f! [DB][Ff]/[Ff]/ [Ff][Ff] |!ff! [Ff]!>![Af] !>![GB=e]!>![Fc_e] :|2 [DB](=E/F/ G)!>![_EF] | %83
 !>![DFB] z !>![Bdfb] z |] %84
V:4
 F,[A,C] C,[A,C] | F,[A,C] C,[E,B,C] | [F,F]>[D,D] [C,C][A,,A,] | [G,,G,] z !>![C,,C,] z || %4
 [C,E,G,C] z z2 | !>![=B,,=B,]!>![B,,B,]!>![C,C] z | [C,E,G,C] z z2 | %7
 !>![=B,,=B,]!>![B,,B,]!>![C,C] z | [C,C] [C,C]2 [_D,_D] | [C,C][_D,_D][C,C][D,D] | [C,C] z z z | %11
 [C,B,] z !>![C,,,C,,] z || [F,,F,] z [C,,C,] z | [F,,F,] z [C,,C,] z || F,[A,C] C,[A,C] | %15
 F,[A,C] C,[E,B,] | F,[A,C] C,[A,C] | F,[A,C] C,[E,B,] | D,[F,G,=B,] G,,[F,G,B,] | %19
!<(! z !>![G,,,G,,]!<)!!>(!!>![A,,,A,,]!>![=B,,,=B,,]!>)! | [C,,C,][E,_B,C] C,[E,B,C] | %21
!<(! z !>![C,,C,]!<)!!>(!!>![D,,D,]!>![E,,E,]!>)! | F,[A,C] C,[A,C] | F,[A,C] C,[E,B,] | %24
 F,[A,C] C,[A,C] | F,[A,C] C,[E,B,] | [F,A,C][F,A,C][E,B,C][_E,A,C] | [D,D][C,C][B,,B,][=B,,=B,] | %28
 [C,C][E,B,] C,[E,B,] | [F,A,]2 !>![F,,F,] z | F,[A,C] C,[A,C] | F,[A,C] C,[A,C] | %32
 F,[A,C] C,[A,C] | D,[F,G,=B,] G,,[F,G,B,] | C,[E,_B,C] C,[E,B,C] | G,,[E,B,C] C,[E,B,C] | %36
 F,[A,C] C,[A,C] | [F,A,C]2 [C,C][A,,A,] | [F,,F,]4 | [A,,A,]2 [C,C]2 | [F,F]4- | [F,F]2 [G,,F,]2 | %42
 [C,E,][E,B,C] C,[E,B,C] | G,,[E,B,C] C,[E,B,C] | z [C,,C,][D,,D,][E,,E,] | [F,,F,]2 C>A, | %46
 F,F, F,/G,/A,/B,/ | CCCA, | [F,A,C]2 [F,=C]2 | [F,C] z z2 |:[K:Bb] B,,[F,B,D] F,,[F,B,D] | %51
 B,,[F,B,D] D,[F,B,] | z [C,C] [D,D][^D,^D] | [=E,=E][B,CE] C,[G,B,C] | F,,[F,A,] F,,[F,A,] | %55
 [A,,A,][F,,F,][G,,G,][A,,A,] | !>![B,,B,]2 !>![A,,A,]2 | !>![G,,G,]2 !>![F,,F,]2 | %58
 G,,[F,G,=B,] G,,[F,G,B,] | D,[F,G,=B,] G,,[F,G,B,] | C,[E,G,C] D,[F,G,=B,] | E,[G,C] C,[E,G,C] | %62
 G,,[=E,B,C] [C,,C,][E,B,C] | G,,[=E,B,C] [C,,C,][E,B,C] | [F,,F,][F,,F,][G,,G,][^G,,^G,] | %65
 [A,,A,] z !>![F,,F,] z | B,,[F,B,D] F,,[F,B,D] | B,,[F,B,D] F,,[F,B,D] | z [C,C][D,D][^D,^D] | %69
 [=E,=E][G,B,C] [C,C][E,B,C] | F,,[F,A,] F,,[F,A,] | [A,,A,][F,,F,][G,,G,][A,,A,] | %72
 !>![B,,B,]2 !>![A,,A,]2 | !>![G,,G,]2 !>![F,,F,]2 | B,,[F,B,] F,,[F,A,] | B,,[F,B,] F,,[F,A,] | %76
 B,,[F,B,] F,,[F,A,] | B,,[F,B,] D,_D, | C,[=E,B,C] C,[E,B,C] | [F,,F,]>[G,,G,][A,,A,][F,,F,] |1 %80
 [B,,,B,,] z z2 | z !>![F,,F,]!>![G,,G,]!>![A,,A,] :|2 [B,,B,](=E,/F,/ G,)!>![F,A,] | %83
 [B,,B,] z !>![B,,,B,,] z |] %84
V:5
 x4 | x4 | x4 | x4 || x4 | x4 | x4 | x4 | x4 | x4 | x4 | x4 || x4 | x4 || x4 | x4 | x4 | x4 | x4 | %19
 x4 | x4 | x4 | x4 | x4 | x4 | x4 | x4 | x4 | x4 | x4 | x4 | x4 | x4 | x4 | x4 | x4 | x4 | x4 | %38
 x4 | x4 | x4 | x4 | x4 | x4 | G4 | x4 | x4 | x4 | x4 | x4 |:[K:Bb] x4 | x4 | c4 | x4 | x4 | x4 | %56
 B4- | B3 d | x4 | x4 | x4 | x4 | x4 | x4 | c4- | c x3 | x4 | x4 | c4 | x4 | x4 | x4 | B4- | B3 x | %74
 x4 | x4 | x4 | x4 | x4 | x4 |1 x4 | x4 :|2 x4 | x4 |] %84
V:6
 x4 | x4 | x4 | x4 || x4 | x4 | x4 | x4 | x4 | x4 | x4 | x4 || x4 | x4 || x4 | x4 | x4 | x4 | x4 | %19
 x4 | x4 | x4 | x4 | x4 | x4 | x4 | x4 | x4 | x4 | x4 | x4 | x4 | x4 | x4 | x4 | x4 | x4 | x4 | %38
 x4 | x4 | x4 | x4 | x4 | x4 | x4 | x4 | x4 | x4 | x4 | x4 |:[K:Bb] x4 | x4 | x4 | x4 | x4 | x4 | %56
 x4 | x4 | x4 | x4 | x4 | x4 | x4 | x4 | x4 | x4 | x4 | x4 | x4 | x4 | x4 | x4 | x4 | x4 | x4 | %75
 x4 | x4 | x2 B,2 | x4 | x4 |1 x4 | x4 :|2 x4 | x4 |] %84

